X: 21
T: Tick Dance Song (j)
C: Anon.
%%abc-version 2.0
%%abcx-abcm2ps-target-version 5.9.1 (29 Sep 2008)
%%abc-creator hum2abc beta
%%abcx-conversion-date 2020/08/10 20:56:09
%%abc-copyright Electronic Copyright 2000 David Huron
%%abc-edited-by David Huron
%%abcx-initial-encoding-date August 27, 2000
%%humdrum-veritas 2557872910
%%humdrum-veritas-data 957715842
%%linebreak <none>
%%barnumbers 0
L: 1/8
M: 3/4
Q: 1/4=63
K: Eb clef=bass
B, G, B, G, B, z | 
B,< G, (3G, F, E,!fermata!F,2[M:2/4] | 
E,> G, (3G, F, E, | 
F,2z3/ A,/[M:3/4] | 
G,> E,F,2z2[M:2/4] | 
F,< F, F, E, | 
F,2E,3/ G,/[M:3/4] | 
G,> E,F,2z2 | 
F,< F, F, E,F,2 | 
C> C B,> G, B, z[M:2/4] | 
B,> G, (3G, F, E, | 
F,2=E,3/ G,/[M:3/4] | 
G,> E,F,2z3/ A,/ | 
G,> E,F,2z2[M:2/4] | 
F,< F, F, E, | 
F,2E,3/ A,/[M:3/4] | 
G,> E,F,2z2[M:2/4] | 
F,< F, F, E,[M:5/8] | 
F,2F,2F,[M:2/4] | 
B,> G,B,2 | 
B,< G, (3G, F, E,!fermata!F,2[M:2/4] | 
E,> G, (3G, F, E, | 
F,2z3/ A,/[M:3/4] | 
G,> E,F,2z2[M:2/4] | 
F,< F, F, E, | 
F,2E,3/ G,/[M:3/4] | 
G,> E,F,2z2 | 
F,< F, F, E,F,2 |]  


